;FLAVOR:Marlin
;TIME:3614
;Filament used: 7.75016m
;Layer height: 0.4
;Generated with Cura_SteamEngine 3.6.0
M140 S60
M105
M190 S60
M104 S200
M105
M109 S200
M82 ;absolute extrusion mode
G28 ;Home
G1 Z15.0 F6000 ;Move the platform down 15mm
;Prime the extruder
G92 E0
G1 F200 E3
G92 E0
G92 E0
G1 F2700 E-7
;LAYER_COUNT:11
;LAYER:0
M107
G0 F3600 X54.51 Y55.573 Z0.3
;TYPE:SKIRT
G1 F2700 E0
G1 F1800 X54.771 Y55.365 E0.01665
G1 X55.743 Y54.664 E0.07644
G1 X56.2 Y54.384 E0.10318
G1 X56.469 Y54.259 E0.11798
G1 X57.746 Y53.729 E0.18696
G1 X57.925 Y53.66 E0.19653
G1 X118.091 Y32.375 E3.38052
G1 X118.572 Y32.242 E3.40542
G1 X119.826 Y31.986 E3.46927
G1 X120.541 Y31.913 E3.50513
G1 X137 Y31.889 E4.32627
G1 X137.42 Y31.913 E4.34726
G1 X139.039 Y32.101 E4.42858
G1 X139.635 Y32.222 E4.45892
G1 X140.636 Y32.515 E4.51095
G1 X141.038 Y32.659 E4.53226
G1 X141.823 Y32.994 E4.57484
G1 X142.292 Y33.236 E4.60117
G1 X143.295 Y33.851 E4.65986
G1 X143.853 Y34.273 E4.69477
G1 X145.057 Y35.383 E4.77647
G1 X145.387 Y35.73 E4.80036
G1 X145.837 Y36.272 E4.8355
G1 X146.19 Y36.78 E4.86637
G1 X146.968 Y38.136 E4.94436
G1 X147.234 Y38.714 E4.97611
G1 X147.627 Y39.811 E5.03424
G1 X147.772 Y40.34 E5.06161
G1 X147.99 Y41.464 E5.11873
G1 X148.052 Y41.975 E5.14441
G1 X148.118 Y43.339 E5.21254
G1 X148.122 Y43.514 E5.22127
G1 X148.088 Y159.508 E11.00824
G1 X148.048 Y160.043 E11.035
G1 X147.977 Y160.395 E11.05292
G1 X147.576 Y161.971 E11.13405
G1 X147.405 Y162.479 E11.16079
G1 X147.283 Y162.74 E11.17516
G1 X146.829 Y163.616 E11.22439
G1 X146.473 Y164.172 E11.25733
G1 X145.838 Y164.987 E11.30887
G1 X145.391 Y165.464 E11.34149
G1 X144.684 Y166.093 E11.3887
G1 X144.184 Y166.465 E11.41979
G1 X143.372 Y166.967 E11.46742
G1 X142.8 Y167.254 E11.49934
G1 X141.844 Y167.631 E11.55061
G1 X141.143 Y167.828 E11.58694
G1 X139.855 Y168.053 E11.65217
G1 X139.237 Y168.107 E11.68312
G1 X122.534 Y168.115 E12.51644
G1 X122.215 Y168.101 E12.53237
G1 X120.914 Y167.986 E12.59753
G1 X120.385 Y167.899 E12.62428
G1 X120.104 Y167.819 E12.63885
G1 X118.851 Y167.406 E12.70467
G1 X118.184 Y167.108 E12.74112
G1 X117.344 Y166.625 E12.78946
G1 X116.874 Y166.303 E12.81789
G1 X115.978 Y165.578 E12.87539
G1 X115.844 Y165.464 E12.88417
G1 X55.182 Y111.297 E16.94154
G1 X54.766 Y110.858 E16.97172
G1 X53.944 Y109.828 E17.03746
G1 X53.625 Y109.355 E17.06592
G1 X53.07 Y108.374 E17.12216
G1 X52.808 Y107.798 E17.15373
G1 X52.335 Y106.457 E17.22467
G1 X52.184 Y105.881 E17.25438
G1 X51.989 Y104.768 E17.31075
G1 X51.939 Y104.312 E17.33364
G1 X51.882 Y103.071 E17.39562
G1 X51.878 Y102.906 E17.40385
G1 X51.879 Y62.239 E19.43274
G1 X51.886 Y62.019 E19.44372
G1 X51.983 Y60.432 E19.52304
G1 X52.055 Y59.901 E19.54977
G1 X52.135 Y59.596 E19.56551
G1 X52.399 Y58.736 E19.61039
G1 X52.668 Y58.09 E19.6453
G1 X53.085 Y57.313 E19.68929
G1 X53.513 Y56.685 E19.72721
G1 X54.133 Y55.955 E19.77499
G1 X54.51 Y55.573 E19.80177
G0 F3600 X54.795 Y55.855
G1 F1800 X55.005 Y55.69 E19.81509
G1 X55.977 Y54.989 E19.87488
G1 X56.622 Y54.628 E19.91176
G1 X57.899 Y54.098 E19.98074
G1 X58.059 Y54.037 E19.98928
G1 X118.225 Y32.752 E23.17327
G1 X118.652 Y32.634 E23.19538
G1 X119.906 Y32.378 E23.25923
G1 X120.541 Y32.313 E23.29107
G1 X137 Y32.289 E24.11222
G1 X137.374 Y32.31 E24.13091
G1 X138.993 Y32.498 E24.21222
G1 X139.523 Y32.606 E24.23921
G1 X140.524 Y32.899 E24.29124
G1 X140.881 Y33.027 E24.31016
G1 X141.666 Y33.362 E24.35274
G1 X142.083 Y33.577 E24.37615
G1 X143.086 Y34.192 E24.43485
G1 X143.582 Y34.567 E24.46587
G1 X144.786 Y35.677 E24.54757
G1 X145.079 Y35.986 E24.56881
G1 X145.529 Y36.528 E24.60396
G1 X145.843 Y36.98 E24.63142
G1 X146.621 Y38.336 E24.70941
G1 X146.858 Y38.849 E24.73761
G1 X147.251 Y39.946 E24.79574
G1 X147.379 Y40.416 E24.82004
G1 X147.597 Y41.54 E24.87717
G1 X147.652 Y41.994 E24.89998
G1 X147.718 Y43.358 E24.96811
G1 X147.722 Y43.514 E24.9759
G1 X147.688 Y159.508 E30.76286
G1 X147.648 Y160.012 E30.78809
G1 X147.589 Y160.296 E30.80256
G1 X147.188 Y161.872 E30.88369
G1 X146.928 Y162.555 E30.92015
G1 X146.474 Y163.431 E30.96937
G1 X146.157 Y163.926 E30.9987
G1 X145.522 Y164.741 E31.05024
G1 X145.125 Y165.165 E31.07922
G1 X144.418 Y165.794 E31.12643
G1 X143.974 Y166.125 E31.15406
G1 X143.162 Y166.627 E31.20169
G1 X142.653 Y166.882 E31.23009
G1 X141.697 Y167.259 E31.28136
G1 X141.074 Y167.434 E31.31365
G1 X139.786 Y167.659 E31.37888
G1 X139.237 Y167.707 E31.40637
G1 X122.534 Y167.715 E32.23969
G1 X122.25 Y167.703 E32.25387
G1 X120.949 Y167.588 E32.31903
G1 X120.229 Y167.439 E32.35571
G1 X118.976 Y167.026 E32.42153
G1 X118.383 Y166.761 E32.45394
G1 X117.543 Y166.278 E32.50228
G1 X117.125 Y165.992 E32.52755
G1 X116.229 Y165.267 E32.58505
G1 X116.111 Y165.166 E32.5928
G1 X55.449 Y110.999 E36.65018
G1 X55.079 Y110.608 E36.67704
G1 X54.257 Y109.578 E36.74278
G1 X53.973 Y109.158 E36.76807
G1 X53.418 Y108.177 E36.82431
G1 X53.185 Y107.665 E36.85237
G1 X52.712 Y106.324 E36.92331
G1 X52.578 Y105.812 E36.94972
G1 X52.383 Y104.699 E37.00609
G1 X52.338 Y104.294 E37.02642
G1 X52.281 Y103.053 E37.0884
G1 X52.278 Y102.906 E37.09574
G1 X52.279 Y62.239 E39.12462
G1 X52.285 Y62.044 E39.13435
G1 X52.382 Y60.457 E39.21368
G1 X52.517 Y59.713 E39.2514
G1 X52.781 Y58.853 E39.29628
G1 X53.02 Y58.279 E39.3273
G1 X53.437 Y57.502 E39.3713
G1 X53.818 Y56.943 E39.40505
G1 X54.438 Y56.213 E39.45283
G1 X54.795 Y55.855 E39.47805
G1 F2700 E32.47805
;MESH:a232c8f7-6209-4ed6-9ef2-a76b29d98e0c.stl
G0 F3600 X58.006 Y56.744
G0 X58.708 Y57.85
G0 X105.628 Y77.372
G0 X106 Y83
;TYPE:WALL-INNER
G1 F2700 E39.47805
G1 F1800 X106 Y77 E39.7774
G1 X56.678 Y77 E42.23808
G1 X56.478 Y77 E42.24806
G1 X56.478 Y76.8 E42.25452
G1 X56.479 Y61.58 E43.01385
G1 X56.55 Y60.849 E43.05049
G1 X56.75 Y60.189 E43.0849
G1 X57.078 Y59.577 E43.11954
G1 X57.514 Y59.045 E43.15385
G1 X58.04 Y58.614 E43.18778
G1 X58.691 Y58.265 E43.22463
G1 X58.845 Y58.206 E43.23286
G1 X119.603 Y36.709 E46.44823
G1 X120.432 Y36.521 E46.49064
G1 X121.067 Y36.478 E46.52239
G1 X136.962 Y36.479 E47.31539
G1 X138.023 Y36.562 E47.36849
G1 X139.008 Y36.798 E47.41902
G1 X139.965 Y37.194 E47.47069
G1 X140.83 Y37.723 E47.52128
G1 X141.609 Y38.391 E47.57247
G1 X142.277 Y39.17 E47.62367
G1 X142.806 Y40.035 E47.67426
G1 X143.202 Y40.993 E47.72597
G1 X143.438 Y41.976 E47.77641
G1 X143.522 Y43.036 E47.82946
G1 X143.521 Y158.958 E53.61283
G1 X143.503 Y159.385 E53.63415
G1 X143.353 Y160.212 E53.67609
G1 X143.075 Y160.951 E53.71548
G1 X142.653 Y161.659 E53.7566
G1 X142.122 Y162.266 E53.79683
G1 X141.488 Y162.771 E53.83727
G1 X140.773 Y163.156 E53.87778
G1 X140.007 Y163.405 E53.91797
G1 X139.181 Y163.516 E53.95955
G1 X138.974 Y163.522 E53.96988
G1 X122.323 Y163.521 E54.8006
G1 X121.689 Y163.479 E54.8323
G1 X120.899 Y163.3 E54.87271
G1 X120.143 Y162.975 E54.91377
G1 X119.436 Y162.508 E54.95604
G1 X119.254 Y162.355 E54.9679
G1 X58.678 Y108.3 E59.01836
G1 X58.4 Y108.037 E59.03745
G1 X57.723 Y107.247 E59.08936
G1 X57.194 Y106.382 E59.13994
G1 X56.8 Y105.427 E59.19148
G1 X56.562 Y104.438 E59.24223
G1 X56.478 Y103.38 E59.29518
G1 X56.479 Y83 E60.31195
G1 X106 Y83 E62.78256
G0 F3600 X105.6 Y82.6
G1 F1800 X105.6 Y77.4 E63.04199
G1 X56.278 Y77.4 E65.50267
G1 X56.078 Y77.4 E65.51265
G1 X56.078 Y77.2 E65.51911
G1 X56.079 Y61.562 E66.29929
G1 X56.156 Y60.77 E66.33899
G1 X56.379 Y60.034 E66.37736
G1 X56.741 Y59.358 E66.41562
G1 X57.23 Y58.761 E66.45412
G1 X57.821 Y58.277 E66.49223
G1 X58.524 Y57.9 E66.53203
G1 X58.702 Y57.832 E66.54153
G1 X119.494 Y36.324 E69.75868
G1 X120.373 Y36.124 E69.80366
G1 X121.055 Y36.078 E69.83776
G1 X136.98 Y36.079 E70.63226
G1 X138.084 Y36.165 E70.68751
G1 X139.134 Y36.417 E70.74138
G1 X140.145 Y36.835 E70.79596
G1 X141.066 Y37.399 E70.84984
G1 X141.893 Y38.107 E70.90415
G1 X142.601 Y38.934 E70.95847
G1 X143.165 Y39.855 E71.01235
G1 X143.583 Y40.866 E71.06693
G1 X143.835 Y41.915 E71.12075
G1 X143.922 Y43.018 E71.17595
G1 X143.921 Y158.975 E76.96107
G1 X143.902 Y159.429 E76.98374
G1 X143.741 Y160.316 E77.02871
G1 X143.435 Y161.129 E77.07205
G1 X142.98 Y161.892 E77.11637
G1 X142.398 Y162.557 E77.16046
G1 X141.711 Y163.105 E77.20431
G1 X140.93 Y163.525 E77.24855
G1 X140.097 Y163.796 E77.29225
G1 X139.207 Y163.916 E77.33705
G1 X138.985 Y163.922 E77.34813
G1 X122.312 Y163.921 E78.17995
G1 X121.63 Y163.876 E78.21405
G1 X120.772 Y163.681 E78.25795
G1 X119.952 Y163.329 E78.30247
G1 X119.203 Y162.834 E78.34726
G1 X118.997 Y162.661 E78.36068
G1 X58.403 Y108.591 E82.4123
G1 X58.112 Y108.316 E82.43228
G1 X57.399 Y107.483 E82.48698
G1 X56.835 Y106.562 E82.54086
G1 X56.418 Y105.552 E82.59538
G1 X56.165 Y104.5 E82.64936
G1 X56.078 Y103.399 E82.70446
G1 X56.079 Y82.6 E83.74213
G1 X105.6 Y82.6 E86.21274
G0 F3600 X105.2 Y82.2
;TYPE:WALL-OUTER
G1 F1800 X105.2 Y77.8 E86.43226
G1 X55.878 Y77.8 E88.89294
G1 X55.678 Y77.8 E88.90292
G1 X55.678 Y77.6 E88.90938
G1 X55.679 Y61.544 E89.71042
G1 X55.762 Y60.69 E89.75322
G1 X56.008 Y59.879 E89.7955
G1 X56.405 Y59.136 E89.83753
G1 X56.944 Y58.479 E89.87993
G1 X57.602 Y57.94 E89.92236
G1 X58.353 Y57.538 E89.96486
G1 X58.558 Y57.459 E89.97582
G1 X119.385 Y35.939 E93.19482
G1 X120.314 Y35.727 E93.24236
G1 X121.043 Y35.678 E93.27881
G1 X136.998 Y35.679 E94.07481
G1 X138.145 Y35.768 E94.1322
G1 X139.261 Y36.036 E94.18946
G1 X140.325 Y36.476 E94.24691
G1 X141.302 Y37.075 E94.30408
G1 X142.177 Y37.823 E94.36151
G1 X142.925 Y38.698 E94.41894
G1 X143.524 Y39.675 E94.47612
G1 X143.964 Y40.739 E94.53356
G1 X144.232 Y41.854 E94.59077
G1 X144.322 Y43 E94.64812
G1 X144.321 Y158.992 E100.43499
G1 X144.301 Y159.473 E100.45901
G1 X144.129 Y160.42 E100.50702
G1 X143.795 Y161.307 E100.55431
G1 X143.307 Y162.125 E100.60183
G1 X142.674 Y162.848 E100.64977
G1 X141.932 Y163.44 E100.69713
G1 X141.091 Y163.893 E100.74479
G1 X140.185 Y164.187 E100.79231
G1 X139.235 Y164.316 E100.84014
G1 X138.995 Y164.322 E100.85212
G1 X122.301 Y164.321 E101.68498
G1 X121.571 Y164.273 E101.72148
G1 X120.645 Y164.062 E101.76886
G1 X119.764 Y163.684 E101.81669
G1 X118.966 Y163.157 E101.8644
G1 X118.74 Y162.967 E101.87913
G1 X58.13 Y108.882 E105.93185
G1 X57.825 Y108.596 E105.95271
G1 X57.075 Y107.719 E106.01028
G1 X56.476 Y106.742 E106.06746
G1 X56.036 Y105.677 E106.12495
G1 X55.768 Y104.563 E106.18211
G1 X55.678 Y103.417 E106.23946
G1 X55.679 Y82.2 E107.29798
G1 X105.2 Y82.2 E109.76859
G0 F3600 X105.2 Y82
G0 X105.7 Y82
G0 X106.39 Y83.39
;TYPE:SKIN
G1 F1800 X106.39 Y76.61 E110.10685
G1 X56.868 Y76.61 E112.57751
G1 X56.869 Y61.597 E113.32651
G1 X56.934 Y60.925 E113.3602
G1 X57.112 Y60.336 E113.39089
G1 X57.401 Y59.798 E113.42136
G1 X57.791 Y59.322 E113.45206
G1 X58.261 Y58.937 E113.48237
G1 X58.848 Y58.623 E113.51559
G1 X119.717 Y37.082 E116.73691
G1 X120.48 Y36.909 E116.77594
G1 X121.094 Y36.868 E116.80664
G1 X136.957 Y36.869 E117.59805
G1 X137.959 Y36.948 E117.64819
G1 X138.883 Y37.169 E117.69559
G1 X139.79 Y37.544 E117.74456
G1 X140.6 Y38.039 E117.79192
G1 X141.332 Y38.668 E117.84007
G1 X141.961 Y39.4 E117.88822
G1 X142.456 Y40.21 E117.93558
G1 X142.831 Y41.118 E117.98459
G1 X143.052 Y42.04 E118.03189
G1 X143.132 Y43.036 E118.08174
G1 X143.131 Y158.942 E123.86431
G1 X143.115 Y159.342 E123.88429
G1 X142.975 Y160.11 E123.92323
G1 X142.722 Y160.782 E123.95906
G1 X142.339 Y161.425 E123.9964
G1 X141.849 Y161.985 E124.03352
G1 X141.271 Y162.445 E124.07037
G1 X140.621 Y162.795 E124.1072
G1 X139.916 Y163.024 E124.14419
G1 X139.156 Y163.126 E124.18244
G1 X138.962 Y163.132 E124.19213
G1 X122.349 Y163.131 E125.02095
G1 X121.738 Y163.091 E125.0515
G1 X121.021 Y162.929 E125.08817
G1 X120.333 Y162.632 E125.12556
G1 X119.669 Y162.194 E125.16524
G1 X119.51 Y162.06 E125.17562
G1 X58.938 Y108.009 E129.22579
G1 X58.688 Y107.775 E129.24288
G1 X58.04 Y107.017 E129.29263
G1 X57.545 Y106.207 E129.33999
G1 X57.171 Y105.302 E129.38884
G1 X56.948 Y104.373 E129.43651
G1 X56.868 Y103.38 E129.48621
G1 X56.869 Y83.39 E130.48351
G1 X106.39 Y83.39 E132.95413
G0 F3600 X58.069 Y106.717
G1 F1800 X60.611 Y109.26 E133.13351
G1 X60.681 Y109.33
G0 F3600 X57.47 Y105.554
G1 F1800 X65.865 Y113.948 E133.72579
G1 X65.935 Y114.018
G0 F3600 X71.119 Y118.636
G1 F1800 X57.22 Y104.738 E134.7064
G0 F3600 X57.102 Y104.054
G1 F1800 X76.373 Y123.325 E136.06608
G1 X76.443 Y123.395
G0 F3600 X81.626 Y128.013
G1 F1800 X57.052 Y103.438 E137.79994
G0 F3600 X57.047 Y102.868
G1 F1800 X86.88 Y132.701 E139.90482
G1 X86.95 Y132.771
G0 F3600 X92.134 Y137.389
G1 F1800 X57.047 Y102.302 E142.3804
G0 F3600 X57.047 Y101.737
G1 F1800 X97.388 Y142.077 E145.22664
G1 X97.458 Y142.147
G0 F3600 X102.642 Y146.766
G1 F1800 X57.047 Y101.171 E148.44361
G0 F3600 X57.047 Y100.605
G1 F1800 X107.896 Y151.454 E152.03128
G1 X107.966 Y151.524
G0 F3600 X113.15 Y156.142
G1 F1800 X57.047 Y100.04 E155.98962
G0 F3600 X57.047 Y99.474
G1 F1800 X118.404 Y160.83 E160.31865
G1 X118.474 Y160.9
G0 F3600 X120.758 Y162.619
G1 F1800 X57.047 Y98.908 E164.81381
G0 F3600 X57.047 Y98.342
G1 F1800 X121.573 Y162.868 E169.36646
G0 F3600 X122.21 Y162.94
G1 F1800 X57.047 Y97.777 E173.96406
G0 F3600 X57.047 Y97.211
G1 F1800 X122.786 Y162.949 E178.60227
G0 F3600 X123.351 Y162.949
G1 F1800 X57.047 Y96.645 E183.28038
G0 F3600 X57.047 Y96.08
G1 F1800 X123.917 Y162.949 E187.99838
G0 F3600 X124.483 Y162.949
G1 F1800 X57.047 Y95.514 E192.75632
G0 F3600 X57.047 Y94.948
G1 F1800 X125.049 Y162.949 E197.55419
G0 F3600 X125.614 Y162.949
G1 F1800 X57.047 Y94.383 E202.39193
G0 F3600 X57.047 Y93.817
G1 F1800 X126.18 Y162.949 E207.2696
G0 F3600 X126.746 Y162.949
G1 F1800 X57.047 Y93.251 E212.18721
G0 F3600 X57.047 Y92.686
G1 F1800 X127.311 Y162.949 E217.14468
G0 F3600 X127.877 Y162.949
G1 F1800 X57.047 Y92.12 E222.14208
G0 F3600 X57.047 Y91.554
G1 F1800 X128.443 Y162.949 E227.17942
G0 F3600 X129.008 Y162.949
G1 F1800 X57.047 Y90.989 E232.25662
G0 F3600 X57.047 Y90.423
G1 F1800 X129.574 Y162.949 E237.37376
G0 F3600 X130.14 Y162.949
G1 F1800 X57.047 Y89.857 E242.53083
G0 F3600 X57.047 Y89.292
G1 F1800 X130.706 Y162.95 E247.72783
G0 F3600 X131.272 Y162.95
G1 F1800 X57.047 Y88.726 E252.96477
G0 F3600 X57.047 Y88.16
G1 F1800 X131.837 Y162.95 E258.24161
G0 F3600 X132.403 Y162.95
G1 F1800 X57.047 Y87.594 E263.55838
G0 F3600 X57.047 Y87.029
G1 F1800 X132.969 Y162.95 E268.91505
G0 F3600 X133.534 Y162.95
G1 F1800 X57.047 Y86.463 E274.31162
G0 F3600 X57.047 Y85.897
G1 F1800 X134.1 Y162.95 E279.74813
G0 F3600 X134.666 Y162.95
G1 F1800 X57.047 Y85.332 E285.22453
G0 F3600 X57.047 Y84.766
G1 F1800 X135.232 Y162.95 E290.74087
G0 F3600 X135.797 Y162.95
G1 F1800 X57.047 Y84.2 E296.29711
G0 F3600 X57.047 Y83.635
G1 F1800 X136.363 Y162.95 E301.89325
G0 F3600 X136.929 Y162.95
G1 F1800 X57.548 Y83.57 E307.49397
G0 F3600 X58.114 Y83.57
G1 F1800 X137.494 Y162.95 E313.09466
G0 F3600 X138.06 Y162.95
G1 F1800 X58.679 Y83.57 E318.69538
G0 F3600 X59.245 Y83.57
G1 F1800 X138.626 Y162.95 E324.2961
G0 F3600 X139.18 Y162.939
G1 F1800 X59.811 Y83.57 E329.89602
G0 F3600 X60.377 Y83.57
G1 F1800 X139.679 Y162.872 E335.4912
G0 F3600 X140.135 Y162.762
G1 F1800 X60.942 Y83.57 E341.07866
G0 F3600 X61.508 Y83.57
G1 F1800 X140.56 Y162.621 E346.65617
G0 F3600 X140.927 Y162.423
G1 F1800 X62.074 Y83.57 E352.21967
G0 F3600 X62.639 Y83.57
G1 F1800 X141.277 Y162.208 E357.76801
G0 F3600 X141.593 Y161.957
G1 F1800 X63.205 Y83.57 E363.29867
G0 F3600 X63.771 Y83.57
G1 F1800 X141.878 Y161.677 E368.80954
G0 F3600 X142.141 Y161.375
G1 F1800 X64.336 Y83.57 E374.29911
G0 F3600 X64.902 Y83.57
G1 F1800 X142.363 Y161.03 E379.76436
G0 F3600 X142.571 Y160.673
G1 F1800 X65.468 Y83.57 E385.2044
G0 F3600 X66.033 Y83.57
G1 F1800 X142.725 Y160.262 E390.61543
G0 F3600 X142.845 Y159.816
G1 F1800 X66.599 Y83.57 E395.995
G0 F3600 X67.165 Y83.57
G1 F1800 X142.933 Y159.338 E401.34084
G0 F3600 X142.95 Y158.79
G1 F1800 X67.73 Y83.57 E406.64802
G0 F3600 X68.296 Y83.57
G1 F1800 X142.95 Y158.224 E411.91526
G0 F3600 X142.95 Y157.658
G1 F1800 X68.862 Y83.57 E417.14257
G0 F3600 X69.427 Y83.57
G1 F1800 X142.95 Y157.092 E422.32998
G0 F3600 X142.95 Y156.527
G1 F1800 X69.993 Y83.57 E427.47749
G0 F3600 X70.559 Y83.57
G1 F1800 X142.95 Y155.961 E432.58506
G0 F3600 X142.95 Y155.395
G1 F1800 X71.125 Y83.57 E437.65271
G0 F3600 X71.69 Y83.57
G1 F1800 X142.95 Y154.83 E442.68048
G0 F3600 X142.95 Y154.264
